src/assets/outline/Frame.svg

<svg width="24" height="24" viewBox="0 0 24 24"  xmlns="http://www.w3.org/2000/svg">
<path d="M12 22.75C6.07 22.75 1.25 17.93 1.25 12C1.25 6.07 6.07 1.25 12 1.25C12.41 1.25 12.75 1.59 12.75 2C12.75 2.41 12.41 2.75 12 2.75C6.9 2.75 2.75 6.9 2.75 12C2.75 17.1 6.9 21.25 12 21.25C17.1 21.25 21.25 17.1 21.25 12C21.25 11.59 21.59 11.25 22 11.25C22.41 11.25 22.75 11.59 22.75 12C22.75 17.93 17.93 22.75 12 22.75Z" />
<path d="M13.8002 10.9499C13.6102 10.9499 13.4202 10.8799 13.2702 10.7299C12.9802 10.4399 12.9802 9.95994 13.2702 9.66994L21.4702 1.46994C21.7602 1.17994 22.2402 1.17994 22.5302 1.46994C22.8202 1.75994 22.8202 2.23994 22.5302 2.52994L14.3302 10.7299C14.1902 10.8699 14.0002 10.9499 13.8002 10.9499Z" />
<path d="M17.83 11.7499H13C12.59 11.7499 12.25 11.4099 12.25 10.9999V6.16992C12.25 5.75992 12.59 5.41992 13 5.41992C13.41 5.41992 13.75 5.75992 13.75 6.16992V10.2499H17.83C18.24 10.2499 18.58 10.5899 18.58 10.9999C18.58 11.4099 18.24 11.7499 17.83 11.7499Z" />
</svg>

<?xml version="1.0" encoding="UTF-8"?>
<svg width="24" height="24" viewBox="0 0 24 24" xmlns="http://www.w3.org/2000/svg">
 <path d="m12 22.75c-5.93 0-10.75-4.82-10.75-10.75s4.82-10.75 10.75-10.75c0.41 0 0.75 0.34 0.75 0.75s-0.34 0.75-0.75 0.75c-5.1 0-9.25 4.15-9.25 9.25s4.15 9.25 9.25 9.25 9.25-4.15 9.25-9.25c0-0.41 0.34-0.75 0.75-0.75s0.75 0.34 0.75 0.75c0 5.93-4.82 10.75-10.75 10.75z"/>
 <path d="m13.8 10.95c-0.19 0-0.38-0.07-0.53-0.22-0.29-0.29-0.29-0.76996 0-1.06l8.2-8.2c0.29-0.29 0.77-0.29 1.06 0s0.29 0.77 0 1.06l-8.2 8.2c-0.14 0.14-0.33 0.22-0.53 0.22z"/>
 <path d="m17.83 11.75h-4.83c-0.41 0-0.75-0.34-0.75-0.75v-4.83c0-0.41 0.34-0.75 0.75-0.75s0.75 0.34 0.75 0.75v4.08h4.08c0.41 0 0.75 0.34 0.75 0.75s-0.34 0.75-0.75 0.75z"/>
</svg>
